X: 1348
T: Meftûn Olalı Sen
C: Hacı Ârif Bey
O: Turkey
F: http://compmusic.upf.edu/node/140
N: huzzam--sarki--turkaksagi--meftun_olali--haci_arif_bey
N: makam= huzzam
N: form= sarki
N: usul= turkaksagi = 5/8
M: 5/8
L: 1/16
K: C _1/4B _3/4e ^3/4f 
Q: 1/4=108
%%MIDI tuningsystem comma53
g2f2 g2f2 e2 | f2 e2f2 e2d2  | d3/2c/Bc defg a_b | \
w:  ARANAĞME  |   |   | 
ag gfg6  | 
w:   | 
g2f2 g2f2 e2 | f2 e2f2 e2d2  | d3/2c/Bc defg fe | \
w:   |   |   | 
dc cBB6  | 
w:   | 
g2f2 g2f2 e2 | f2 e2f2 e2d2  | d3/2c/Bc defg a_b | \
w:  ARANAĞME  |   |   | 
ag gfg6  | 
w:   | 
g2f2 g2f2 e2 | f2 e2f2 e2d2  | d3/2c/Bc defg fe | \
w:   |   |   | 
dc cBB6  | 
w:   | 
gfed d4 cd | ef edd4z2  | e3/2d/cd egf2 ed | 
w:  Mef *  *  *  tun   |  o *  la *  lı   |  sen   | 
dc cBc6  | d3/2c/Bc d4 cd | e2 defg fed2  | \
w:  şeh_ *  i  *  hû  |  bân_  |   | 
aggf fgfe ed | 
w:  ı  *  ci *  ha  | 
d4dc B^AB2  | gfed d4 cd | ef edd4z2  | \
w:  na   SAZ  |  Mef *  *  *  tun   |  o *  la *  lı   | 
e3/2d/cd egf2 ed | 
w:  sen   | 
dc cBc6  | d3/2c/Bc d4 cd | e2 defg fed2  | \
w:  şeh_ *  i  *  hû  |  bân_  |   | 
aggf fgfe ed | 
w:  ı  *  ci *  ha  | 
d4c3/2d/ efg2  | d3g g4 {a}f2 | ag gfgf edc2  | \
w:  na   SAZ  |  Atf_ *  ı   |  na *  zar  *  et  | 
d3/2e/de f4 ed | 
w:  mem   | 
dc {d}cBB6  | g3/2f/g_1/4e d2fe f2 | \
w:  çe *  *  me *  nis  |  tan_  | 
ed cde2 f2ed  | 
w:   | 
d2d2 edcd cB | B4c3/2d/ efg2  | d3g g4 {a}f2 | \
w:  ı  za ma  |  na   SAZ  |  Atf_ *  ı   | 
ag gfgf edc2  | 
w:  na *  zar  *  et  | 
d3/2e/de f4 ed | dc {d}cBB6  | g3/2f/g_1/4e d2fe f2 | \
w:  mem   |  çe *  *  me *  nis  |  tan_  | 
ed cde2 f2ed  | 
w:   | 
d2d2 edcd cB | B4g3/2f/ ^egf2  | ^e3g {g}f6 | \
w:  ı  za ma  |  na   SAZ  |  Hay *  *  ran   | 
^ef gff4ed  | 
w:  e *  de *  li   | 
d2{e}dc B2c2 d_1/4e | dc cBB6  | agf^3/4e f2g2 a_2/4b | \
w:  aşk   |  be *  ni  *  hüs  |  nün  | 
c'2 _7/8baag gff2  | 
w:   | 
c'2_ba abag gf | f4g3/2f/ _1/4efg2  | \
w:  de ki  *  â  |  na   SAZ  | 
g=f_1/4ef g4 f2 | 
w:  Aş *  *  *  kın   | 
g2 agg4z2  | ag=fg a_2/4bc'2 _ba | ag g=ffg f2_1/4e2  | 
w:  e le *  mi   |  kad  |  di *  mi  *  dön  | 
d3/2c/d_1/4e =fga_b ag | g=f2ee3/2d/ d2c2  | \
w:  dür  |   | 
aggf fgfe ed | 
w:  dü  *  ke *  ma  | 
d4c3/2d/ efg2  | d3g g4 {a}f2 | ag gfgf edc2  | \
w:  dür SAZ  |  Atf_ *  ı   |  na *  zar  *  et  | 
d3/2e/de f4 ed | 
w:  mem   | 
dc {d}cBB6  | g3/2f/g_1/4e d2fe f2 | \
w:  çe *  *  me *  nis  |  tan_  | 
ed cde2 f2ed  | 
w:   | 
d2d2 edcd cB | B4c3/2d/ efg2  | d3g g4 {a}f2 | \
w:  ı  za ma  |  na   SAZ  |  Atf_ *  ı   | 
ag gfgf edc2  | 
w:  na *  zar  *  et  | 
d3/2e/de f4 ed | dc {d}cBB6  | g3/2f/g_1/4e d2fe f2 | \
w:  mem   |  çe *  *  me *  nis  |  tan_  | 
ed cde2 f2ed  | 
w:   | 
d2d2 edcd cB | B4|
w:  ı  za ma  |  na    | 


